icons-rebrand/svg/secure-call-shield-light.svg

<svg xmlns="http://www.w3.org/2000/svg" width="32" height="32" viewBox="0 0 32 32" fill="none"><path d="M27.27 23.609C27.1181 23.2423 26.8951 22.9092 26.614 22.629L23.861 19.876C23.2873 19.3278 22.5244 19.0219 21.731 19.0219C20.9375 19.0219 20.1746 19.3278 19.601 19.876C19.601 19.876 18.129 21.376 17.84 21.682C16.8472 21.7019 15.8608 21.5187 14.9415 21.1434C14.0221 20.7682 13.1892 20.2089 12.494 19.5C11.0954 18.0975 10.295 16.2074 10.261 14.227C10.609 13.879 12.006 12.505 12.117 12.396L12.124 12.389C12.6883 11.8244 13.0053 11.0588 13.0053 10.2605C13.0053 9.46223 12.6883 8.69662 12.124 8.132L9.37095 5.385C8.79458 4.83628 8.02926 4.53024 7.23345 4.53024C6.43765 4.53024 5.67233 4.83628 5.09595 5.385L3.62395 6.857C1.74095 8.74 1.38095 15.413 8.98295 23.016C13.896 27.929 18.421 29.516 21.516 29.516C22.826 29.61 24.1227 29.2021 25.143 28.375L26.614 26.9C27.037 26.4775 27.3251 25.9389 27.4419 25.3526C27.5587 24.7662 27.4988 24.1583 27.27 23.606V23.609ZM25.907 26.2L24.435 27.672C23.053 29.053 16.849 29.472 9.68995 22.313C2.53095 15.154 2.94995 8.945 4.33095 7.564L5.79995 6.093C5.98781 5.90514 6.21082 5.75612 6.45627 5.65445C6.70172 5.55278 6.96478 5.50045 7.23045 5.50045C7.49612 5.50045 7.75919 5.55278 8.00464 5.65445C8.25008 5.75612 8.4731 5.90514 8.66095 6.093L11.414 8.845C11.7901 9.22184 12.0014 9.73254 12.0014 10.265C12.0014 10.7975 11.7901 11.3082 11.414 11.685C11.414 11.685 9.91395 13.162 9.54795 13.526C8.96795 14.105 9.48095 16.058 9.54195 16.28C9.94226 17.7598 10.7128 19.1134 11.781 20.213C14.081 22.513 17.77 23.142 18.468 22.446C18.832 22.081 20.305 20.583 20.305 20.583C20.6878 20.2173 21.197 20.0132 21.7265 20.0132C22.2559 20.0132 22.7651 20.2173 23.148 20.583L25.9 23.336C26.2783 23.7157 26.4908 24.2299 26.4908 24.766C26.4908 25.3021 26.2783 25.8163 25.9 26.196L25.907 26.2Z M28.329 4.512C28.2155 4.31848 28.054 4.1576 27.86 4.045L24.824 2.311H24.815C24.3848 2.09427 23.9078 1.98691 23.4262 1.99842C22.9446 2.00993 22.4733 2.13996 22.054 2.377L19.13 4.049C18.9373 4.16242 18.7771 4.32361 18.665 4.517C18.5551 4.70904 18.4982 4.92678 18.5 5.148V5.969C18.4706 7.56277 18.8761 9.13441 19.673 10.515C20.4836 11.9166 21.6495 13.0796 23.053 13.887C23.1878 13.9611 23.3391 13.9999 23.493 14C23.6529 13.9996 23.8101 13.9587 23.95 13.881C25.3497 13.0744 26.5123 11.9135 27.321 10.515C28.1182 9.13758 28.5257 7.56927 28.5 5.978V5.155C28.5015 4.92923 28.4424 4.70718 28.329 4.512ZM27.5 5.987C27.5244 7.39919 27.1646 8.79148 26.459 10.015C25.7451 11.2364 24.7451 12.2659 23.545 13.015C22.2991 12.2955 21.2645 11.2609 20.545 10.015C19.8363 8.78928 19.475 7.39362 19.5 5.978V5.141C19.4992 5.09797 19.5099 5.05551 19.531 5.018C19.5562 4.97743 19.5904 4.94321 19.631 4.918L22.544 3.253C22.8341 3.09015 23.1612 3.00463 23.494 3.00463C23.8267 3.00463 24.1538 3.09015 24.444 3.253L27.353 4.914C27.3957 4.93847 27.432 4.97274 27.459 5.014C27.4826 5.05496 27.4944 5.10171 27.493 5.149L27.5 5.987Z"/></svg>

<svg width="32" height="32" fill="none" xmlns="http://www.w3.org/2000/svg"><path fill-rule="evenodd" clip-rule="evenodd" d="M27.27 23.609a3.0107 3.0107 0 0 0-.656-.98l-2.753-2.753a3.0831 3.0831 0 0 0-4.26 0s-1.472 1.5-1.761 1.806a7.2826 7.2826 0 0 1-5.346-2.182 7.6536 7.6536 0 0 1-2.233-5.273c.348-.348 1.745-1.722 1.856-1.831l.007-.007a3.011 3.011 0 0 0 0-4.257L9.371 5.385a3.1 3.1 0 0 0-4.275 0L3.624 6.857C1.741 8.74 1.381 15.413 8.983 23.016c4.913 4.913 9.438 6.5 12.533 6.5a5.1718 5.1718 0 0 0 3.627-1.141l1.471-1.475a3.0215 3.0215 0 0 0 .656-3.294v.003ZM25.907 26.2l-1.472 1.472c-1.382 1.381-7.586 1.8-14.745-5.359C2.531 15.154 2.95 8.945 4.331 7.564L5.8 6.093a2.023 2.023 0 0 1 2.861 0l2.753 2.752a2.0102 2.0102 0 0 1 0 2.84s-1.5 1.477-1.866 1.841c-.58.579-.067 2.532-.006 2.754a9.0277 9.0277 0 0 0 2.239 3.933c2.3 2.3 5.989 2.929 6.687 2.233.364-.365 1.837-1.863 1.837-1.863a2.058 2.058 0 0 1 2.843 0l2.752 2.753a2.0261 2.0261 0 0 1 0 2.86l.007.004Z" fill="#0F0F0F"/><path d="M28.329 4.512a1.2999 1.2999 0 0 0-.469-.467l-3.036-1.734h-.009a2.931 2.931 0 0 0-2.761.066L19.13 4.049a1.3007 1.3007 0 0 0-.465.468 1.2519 1.2519 0 0 0-.165.631v.821a8.7719 8.7719 0 0 0 1.173 4.546 9.21 9.21 0 0 0 3.38 3.372.915.915 0 0 0 .44.113.9454.9454 0 0 0 .457-.119 9.1998 9.1998 0 0 0 3.371-3.366A8.7735 8.7735 0 0 0 28.5 5.978v-.823a1.2614 1.2614 0 0 0-.171-.643ZM27.5 5.987a7.7924 7.7924 0 0 1-1.041 4.028 8.7278 8.7278 0 0 1-2.914 3 8.2 8.2 0 0 1-3-3A7.7914 7.7914 0 0 1 19.5 5.978v-.837a.2417.2417 0 0 1 .031-.123.3116.3116 0 0 1 .1-.1l2.913-1.665a1.9412 1.9412 0 0 1 1.9 0l2.909 1.661a.3105.3105 0 0 1 .106.1.2535.2535 0 0 1 .034.135l.007.838Z" fill="#0F0F0F"/></svg>
